X:281
T: HIER IN DES ABENDS TRAULICH ERNSTER STILLE
N: F0496
O: Europa, Mitteleuropa, Deutschland
R: Studenten - Lied
M: 4/4
L: 1/8
K: D
 | D4D2D2 | E4E4 |
F2D2D2E2 | D4C4 |
F4F2F2 | F2E2E4 |
D3DE2D2 | D4C4 |
F4E2D2 | G2F2E4 |
F3FE2D2 | C2B,2A,4 |
F4D2E2 | D4C4 | D8

@@@ Tune index: 5712
